X: 11
T: Der Anf\"anger (Bb)
C: David Schonfeld
N: Composed for NOMAD 2004
M: 23/44
L: 1/8
K: Bb
|: "Bb"B2 f3 d | B2 F2 D2 | "Eb"E2 G2 | "F7"F2 A2 \
|  "Bb"B2 f3 d | B2 F2 D2 | "F7"F2 A2 | "Bb"B3  z :|
|: "Cm"e3 d cd | e2 d2 c2 | "F7"A2 c2 | "Bb"B2 d2 \
|  "Cm"e3 d cd | e2 d2 c2 | "F7"[f2F2] [a2A2] | "Bb"[b2B2] z2 :|
%%sep 2 1 500
